X: 32183
T: Peter's Peerie Boat
R: jig
M: 6/8
K: Dmajor
A|d2 d D2 D|EFG ABc|dcd Bed|cBc ABc|d2 d D2 D|EFG ABc|
d2 A GFE|FDD D2:|A|dcd fed|cBc edc|BAB dcB|A3 A2 F|
GFG BAG|F2 A d3|E2 G B3|C2 E A2 A|dcd fed|cBc edc|BAB dcB|
A3 A2 F|GFG BAG|F2 A H a2 g|fed Adc|(d3 d2):|

